icons/caret-double-rightB.svg

<svg width="24" height="24" viewBox="0 0 24 24" fill="none" xmlns="http://www.w3.org/2000/svg">
<path d="M7.92815 6.16248L11.8281 9.96248C11.9281 10.0625 12.1281 10.0625 12.1281 9.96248L16.0281 6.06248C16.2281 5.86248 16.0281 5.66248 15.8281 5.66248H8.12814C7.92814 5.76248 7.82815 5.96248 7.92815 6.16248Z" fill="black"/>
<path fill-rule="evenodd" clip-rule="evenodd" d="M7.9511 4.91248H15.8281C16.1466 4.91248 16.4961 5.06229 16.7022 5.37144C16.8151 5.54078 16.8861 5.76517 16.8528 6.01472C16.8201 6.26041 16.6967 6.45459 16.5585 6.59281L12.7498 10.4015C12.6795 10.5102 12.5869 10.5968 12.4884 10.6575C12.311 10.7666 12.1316 10.7875 12.0156 10.7875C11.7881 10.7875 11.5137 10.7059 11.3024 10.4974L7.314 6.61122L7.25733 6.49789C7.11009 6.2034 7.10065 5.87272 7.22629 5.57954C7.34549 5.30139 7.56318 5.10644 7.79274 4.99166L7.9511 4.91248ZM9.25944 6.41248L11.9733 9.05671L14.6175 6.41248H9.25944Z" fill="black"/>
<path d="M7.92815 14.3625L11.8281 18.2625C11.9281 18.3625 12.1281 18.3625 12.1281 18.2625L16.0281 14.3625C16.2281 14.1625 16.0281 13.9625 15.8281 13.9625H8.12814C7.92814 13.9625 7.82815 14.1625 7.92815 14.3625Z" fill="black"/>
<path fill-rule="evenodd" clip-rule="evenodd" d="M7.24483 13.7521C7.41292 13.4159 7.7521 13.2125 8.12816 13.2125H15.8282C16.1466 13.2125 16.4961 13.3623 16.7022 13.6715C16.8151 13.8408 16.8861 14.0652 16.8528 14.3148C16.8201 14.5605 16.6967 14.7546 16.5585 14.8929L12.7498 18.7016C12.6796 18.8103 12.5869 18.8969 12.4884 18.9575C12.311 19.0667 12.1316 19.0875 12.0157 19.0875C11.7864 19.0875 11.5097 19.0047 11.2978 18.7929L7.31177 14.8068L7.25734 14.6979C7.11898 14.4212 7.08566 14.0705 7.24483 13.7521ZM9.33882 14.7125L11.9782 17.3519L14.6175 14.7125H9.33882Z" fill="black"/>
</svg>

<svg xmlns="http://www.w3.org/2000/svg" fill="none" viewBox="0 0 24 24">
  <path fill="#000" d="m7.928 6.162 3.9 3.8c.1.1.3.1.3 0l3.9-3.9c.2-.2 0-.4-.2-.4h-7.7c-.2.1-.3.3-.2.5Z"/>
  <path fill="#000" fill-rule="evenodd" d="M7.951 4.912h7.877c.319 0 .668.15.874.46a.928.928 0 0 1 .15.643.998.998 0 0 1-.294.578l-3.808 3.809a.835.835 0 0 1-.262.256.902.902 0 0 1-.472.13 1.03 1.03 0 0 1-.714-.29L7.314 6.61l-.057-.113a1.083 1.083 0 0 1-.03-.918c.118-.279.336-.474.566-.588l.158-.08Zm1.308 1.5 2.714 2.645 2.644-2.645H9.26Z" clip-rule="evenodd"/>
  <path fill="#000" d="m7.928 14.363 3.9 3.9c.1.1.3.1.3 0l3.9-3.9c.2-.2 0-.4-.2-.4h-7.7c-.2 0-.3.2-.2.4Z"/>
  <path fill="#000" fill-rule="evenodd" d="M7.245 13.752a.978.978 0 0 1 .883-.54h7.7c.319 0 .668.15.874.46a.928.928 0 0 1 .15.643.998.998 0 0 1-.294.578l-3.808 3.809a.833.833 0 0 1-.262.255.901.901 0 0 1-.472.13c-.23 0-.506-.082-.718-.294l-3.986-3.986-.055-.11a1.056 1.056 0 0 1-.012-.945Zm2.094.96 2.64 2.64 2.639-2.64h-5.28Z" clip-rule="evenodd"/>
</svg>
